X: 12
T: Sm fglarna i skogen
T: The small birds in the forest
R: waltz
M: 3/4
L: 1/8
K: F
C2 | "F"F3 GAB | c2 A2 c2 | "C7"B2 G2 E2 | "F"F4 :: F2 | "Bb"B4 d2 | B2 d2 d2 | "F"F2 A2 c2 |
| A2 c2 c2 | "C7"C2 E2 G2 | C2 E2 G2 |1 c2 c2 B2 | "F"A4 :|2 "C7"c2 B2 G2 | "F"F4 |]
%%sep 1 1 10cm
